X: 37
T: Tallis Canon
M: 4/4
K: G
L: 1/4
C: Thomas Tallis
Q: "Moderato"
uG | G F G G | A A B G | c c B B | A A G d |
w: The sun it ris-es in the day and in the eve-ning slips a-way, The
c A B B | A A G D | E F G B | A A G :|
w: moon it ris-es in the night and fades a-way inthe morn-ing light.
